!!!OTL: ES WOHNT EIN MUELLER IN JENEM THAL
!!!ARE: Europa, Mitteleuropa, Deutschland
!!!SCT: E0146A
!!!YEM: Copyright 1995, estate of Helmut Schaffrath.
**kern
*ICvox
*Ivox
!! Mixed meters:  6/8; 4/4
*M6/8
*k[b-e-]
*B-:
{8f
=1
4b-
8b-
8a
8a
8cc
=2
4b-
8g
4.f}
=3
{4.ee-
4dd
8ff
=4
2cc
8r}
{8ff
=5
4cc
8dd
4cc
8b-
=6
4a
8g
4.f}
=7
*M4/4
{4dd
8dd
8dd
4dd
8dd
8dd
=8
*M6/8
4dd
8dd
8dd
4dd}
=9
{4ff
=10
*M4/4
8cc
8cc
8cc
8cc
4cc
8b-
8b-
=11
*M6/8
4a
4g
4f}
=12
{4f
=13
*M4/4
4b-
4b-
4cc
4cc
=14
*M6/8
2.ff}
=15
{4ee-
=16
*M4/4
4dd
4dd
4cc
4cc
=17
2b-
4.r}
==
!!!AGN: erzaehlendes Volks - Lied, Scherz, Schwank, Ballade ?
!!!ONB: ESAC (Essen Associative Code) Database: ERK1
!!!AMT: irregular
!!!AIN: vox
!!!EED: Helmut Schaffrath
!!!EEV: 1.0
*-
